X: 40315
T: Tom Billy's
R: jig
M: 6/8
K: Adorian
eAA gfg|edB BAB|~G3 ~B3|def g2f|
eAA gfg|edB BAB|GBd gfg|edB A3:|
|:e2a age|aba age|~g3 gdB|GBd g2f|
eaa eaa|dgg dgg|edB gfg|edB A3:|

